src/topics/icons/lynda.svg

<svg height="256" preserveAspectRatio="xMidYMid" viewBox="0 0 256 256" width="256" xmlns="http://www.w3.org/2000/svg"><path d="m245.851081 78.242944c-6.440319-15.3850082-15.608803-28.9157162-27.39178-40.7057975-11.885993-11.7829767-25.416701-20.9550135-40.69514-27.3882275-15.932063-6.76357779-32.407627-10.148919-49.764161-10.148919-17.34943 0-33.9315627 3.38534121-49.757056 10.148919-15.2784392 6.433214-28.8126995 15.6052508-40.7057975 27.3882275-11.7900813 11.9002026-20.9479089 25.4273583-27.3953321 40.7057975-6.75647319 15.9320622-10.1418144 32.411179-10.1418144 49.757056 0 17.352982 3.38534121 33.945772 10.1418144 49.771265 6.4474232 15.274887 15.6052508 28.798491 27.3953321 40.691588 11.7829767 11.793634 25.3207893 20.955014 40.7057975 27.395333 15.8254933 6.770682 32.407626 10.148919 49.757056 10.148919 17.356534 0 33.832098-3.378237 49.764161-10.148919 15.278439-6.440319 28.809147-15.601699 40.69514-27.395333 11.782977-11.893097 20.951461-25.416701 27.39178-40.691588 6.777787-15.825493 10.148919-32.418283 10.148919-49.771265 0-17.345877-3.371132-33.8249938-10.148919-49.757056zm-201.9837372 84.796936-19.2037299-18.781006 4.3657758-1.520384c2.0709905.436933 4.1455333 1.087003 6.3195404 1.964421 3.2823246 1.193573 5.3497628 2.507924 6.3337497 3.712153 1.7512835 2.067438 2.5114756 5.889712 2.184664 11.456165l-.2166902 2.944856 2.2947853-1.857852c4.7991563-4.038965 9.3780701-6.436767 13.6337246-7.200511 2.7317182-.543502 10.0423501-1.417367 21.7187578-2.618044l16.6922544-1.634058 3.3888933 2.614492zm121.5632342 22.475398c-2.507924-6.109955-4.259207-11.786529-5.673022-17.019066-1.531041-6.227181-1.744179-9.935781-.650071-10.926873 2.063886-1.847195 3.697943-3.921738 5.122415-6.220076.099465-.209585.32326-.539949.547054-.760192 0-.106569 0-.106569.113674-.106569l16.908945 21.935448zm-9.275054-50.741043c6.440319-5.570006 10.479283-9.061916 11.900203-10.475731 3.27522-3.282324 8.287514-8.845225 15.047539-16.926706-17.562567 13.31757-28.372214 20.741876-32.286848 22.049122l-3.935947 1.534593c-1.417368.429828-2.724614.75664-3.928843.980435-3.051425.436932-7.314185.106569-12.766964-1.094109-5.12952-1.207781-8.40474-3.7086-9.829212-7.527322-.323259-.987539-.75664-2.731718-1.193573-5.239641-.436932-2.294786-.870313-4.149086-1.307246-5.353315-.440485-.976883-1.420919-2.941304-3.051425-5.779591-1.634057-2.941304-3.069186-5.562901-3.935947-7.7440126-2.948409-6.6605611-4.586019-13.971193-5.239642-22.1556906h.440485c3.278772 0 6.106403-.9804346 8.40474-2.7246135.53995-.4404851.983987-.770849 1.307246-1.2042295l2.074543-6.3301973v-.1030167c.436933-2.8382871 2.401355-4.3693281 5.889712-4.3693281 3.499015 0 5.346211 1.4138151 5.88616 4.0425166-.106569.4298282-.106569.8738656-.106569 1.4138151 0 2.5114756 1.097661 4.6925873 3.495463 6.5504399 2.287681 1.7441789 5.133072 2.7246135 8.401188 2.7246135 3.278772 0 6.006938-.9804346 8.401187-2.7246135 2.184665-1.8578526 3.385342-4.0389643 3.385342-6.5504399v-.106569h4.475897v-2.8382871h-5.022951c-.53995-1.3107985-1.527489-2.5114756-2.838288-3.5984792-2.394249-1.7512835-5.122415-2.7317181-8.401187-2.7317181-3.268116 0-6.113507.9804346-8.401188 2.7317181-.760192.5506064-1.307246 1.2006772-1.8543 1.8578525-.216691-.3268115-.436933-.6571753-.653623-.8774179-1.63761-1.7512835-3.822274-2.6251492-6.767131-2.6251492-2.834734 0-5.12952.8738657-6.653456 2.6251492-.330364.2202426-.554159.5506064-.75664.8774179-.444037-.6571753-1.101213-1.2006771-1.861405-1.8578525-1.857852-1.4209197-3.932395-2.2983376-6.440318-2.6251492 4.483001-11.5662864 14.624816-23.7826436 30.443205-36.6668331 7.747564 20.3013904 19.967474 33.3951655 36.563816 39.0681875.429828.9875392.97333 2.1882163 1.740627 3.3782366 0 .2237948.113673.3303638.213138.4440374h-12.102684v2.8382871h13.637277c.099464.3303638.323259.6500708.436933.9804346 1.090556 2.7352705.539949 5.8861599-1.538146 9.2715011l-3.051425 4.1526379c-.97333 1.6340577-1.087003 3.0585297-.429828 4.3657758.330364.7566398 1.317903 1.8578525 2.948408 3.1650987.980435.8738656 1.410263 2.184664 1.200677 3.9217384 3.484806-.8738656 4.909278-2.6144923 4.028308-5.4527794-.436933-1.6340577-.323259-3.1650987.444037-4.6925874l.983987-1.9644215c.103017-.2237948.209586-.3303638.209586-.4369328v-.1030167c.120778 0 .120778 0 .120778-.1136735 1.847196-3.062082 2.937751-5.3497628 3.484806-6.8772514.103016-.5435018.206033-.9875392.206033-1.4173675 0-1.3072461-.639414-2.6180445-2.063886-3.7121527h3.932395c3.602032 3.3853412 4.362224 9.6018649 2.504371 18.5465545.326812 5.2431938-.429828 8.1880499-2.291233 8.7386563-1.861404.4333805-3.715705-.106569-5.676574-1.63761l.113674 51.1744232 25.967307.110122 3.719258 5.026503-29.800239 20.074043zm-52.378653-66.026587c.213138.6536231.870314.9839869 2.074543.9839869.543502 0 1.090556-.213138 1.523936-.5506064.216691-.106569.330364-.213138.440485-.4333805h7.310632c-.323259 1.424472-1.204229 2.5114756-2.61094 3.6091361-1.754835 1.1900202-3.932395 1.8471956-6.447423 1.8471956-2.507923 0-4.586018-.6571754-6.4403184-1.8471956-1.7441789-1.3107985-2.6180445-2.8382872-2.6180445-4.5895707 0-1.8578525.8738656-3.3888935 2.6180445-4.5789138 1.8543004-1.3072461 3.9323954-1.9644215 6.4403184-1.9644215 2.515028 0 4.692588.6571754 6.447423 1.9644215 1.193573.7566398 1.957317 1.7406267 2.387146 2.8382871h-13.523604v2.7210613zm35.686399 0c.213138.6536231.870313.9839869 1.957317.9839869 1.200677 0 1.8543-.3303638 2.181111-.9839869h6.770683c-.209586 1.424472-1.087004 2.5114756-2.504371 3.6091361-1.857853 1.1900202-4.042517 1.8471956-6.447423 1.8471956-2.621597 0-4.685483-.6571754-6.543336-1.8471956-1.747731-1.3107985-2.618044-2.8382872-2.618044-4.5895707 0-.4333805 0-.866761.106569-1.1935726 0-.1136735.106569-.4404851.223795-1.0976604.213138-.5470541.976882-1.4244721 2.28768-2.2876808 1.857853-1.3072461 3.921739-1.9644215 6.543336-1.9644215 2.404906 0 4.58957.6571754 6.447423 1.9644215 1.083451.7566398 1.953764 1.7406267 2.294785 2.8382871h-12.994311v2.7210613zm53.685899 30.8801376c.753087.7708494 1.090556 1.6447144 1.090556 2.5150284 0 .976882-.337469 1.857852-1.090556 2.507923-.653623.760192-1.527489 1.09766-2.511476 1.09766s-1.747731-.337468-2.504371-1.09766c-.66428-.650071-.991091-1.531041-.991091-2.507923 0-.870314.326811-1.744179.991091-2.5150284.75664-.653623 1.520384-1.0870035 2.504371-1.0870035s1.857853.4333805 2.511476 1.0870035zm24.54994 74.3212054c-7.083285 5.456332-15.385008 11.122249-24.873199 16.912497h-.106569l-7.211168-17.679793 33.498182-22.592624.113674-.106569v-.113673c2.078095 1.200677 4.035412 2.845391 5.893264 4.916382 1.523937 1.634057 2.618045 3.27522 3.385342 4.799156.43338.657175.65007 1.307246.866761 2.078095.326811 1.63761-3.488358 5.562901-11.566287 11.786529zm27.17509-8.514861c-5.562901-2.511476-9.939334-4.262759-13.314018-4.91283-.763744-2.284129-2.294785-4.578914-4.365776-6.980268-2.401354-2.621597-4.792052-4.468793-7.204063-5.896817-2.397802-1.200677-4.369328-1.634058-5.882607-1.09766l-.66428-.866761h9.711986c4.799156 0 8.845225-1.42092 12.11334-4.472345 4.042517-3.818722 5.999834-9.598313 5.90037-17.459551-.223795-7.744013-2.0852-17.239309-5.573558-28.3722146-4.035412-12.7669636-9.381622-24.546388-15.92851-35.3524824-7.967807-12.8735326-17.019066-23.026004-27.061416-30.3366359-11.900203-8.6178781-24.880304-12.9872062-38.954514-12.9872062-15.939167-.1172259-28.702578 5.3497627-38.194322 16.2588738-5.896817 6.6570089-10.376266 15.3850082-13.53426 26.1875503-1.531041.4333805-2.9484084 1.0870036-4.2627592 2.0780951-1.3072461 1.0870036-2.2876807 2.2876807-2.8311825 3.5984792h-5.4563317v2.8382871h4.8027086v.106569c0 2.5114756 1.1971249 4.6925873 3.4848056 6.5504399.3303639.1101212.5506064.3268115.770849.5399495-1.5239364 10.04235-2.0780951 20.9550134-1.63761 32.6349732.3232592 9.70133.9768823 16.475564 1.8543002 20.283629 1.417367 5.466989 3.385341 9.388727 6.106403 11.903755 4.038964 3.818722 10.479282 5.779591 19.207282 5.779591l36.776954.110121 2.067438 2.728166c-1.087003 2.511476-2.944856 4.916382-5.5629 7.207615-.657176.653623-1.087004 1.520384-1.310799 2.838287-17.132739 7.193407-26.624483 12.546722-28.36511 15.932063l-9.498848 17.015513-9.16138-40.585019-4.259206.75664-5.893265-4.589571-18.006605 1.86851c-11.5591819 1.19002-18.7632448 2.067438-21.6050843 2.607387-2.9413038.547054-6.3301973 1.971526-9.9286765 4.15619-1.0905558.760192-2.0709904 1.307246-2.8347348 1.847196l-.1136736-2.500819c-.4369328-3.712152-1.3107984-6.333749-2.7281658-8.085033-1.3036938-1.634058-4.141981-3.268115-8.1880499-4.692587l-6.433214-1.957317-.3232592.113673-5.8968168 2.170455-2.9484084-2.82763 14.0848667 67.11359c-7.7546694-9.392279-14.0848667-19.640662-18.884023-30.890794-6.44031862-15.274887-9.70843396-31.199845-9.70843396-47.796187 0-16.688702 3.26811534-32.5177476 9.70843396-47.7926345 6.2236283-14.6248162 14.9516276-27.6013654 26.2976716-38.9545139 11.3567008-11.3531486 24.3368023-20.0775956 38.9616185-26.3083285 15.2713346-6.42966172 31.1003805-9.70132936 47.7926345-9.70132936 16.585685 0 32.517748 3.27166764 47.689618 9.70132936 14.720728 6.2307329 27.715039 14.9551799 39.068187 26.3083285 11.346044 11.3531485 20.077596 24.3296977 26.287015 38.9545139 6.447423 15.2748869 9.729748 31.1039325 9.729748 47.7926345 0 12.880637-1.971526 25.423806-5.900369 37.43413zm-111.520884-53.469209c-2.404907.75664-4.152638 1.307246-5.239641 1.413815-1.307247.220243-2.948409.220243-4.91283-.106569-1.744179-.223795-2.845392-.550606-3.381789-.763744-.657176-.323259-1.094108-.870313-1.310799-1.751284-.330364 1.527489.436933 2.735271 2.401355 3.609136 1.310798.657176 2.944856 1.087004 4.902173 1.307246 1.971526.106569 4.479449-.543501 7.43141-2.181111 2.944856-1.634058 4.145533-2.511476 3.49191-2.735271 0 0-1.20423.330364-3.381789 1.207782zm-11.573391-1.634058c.980435-.330363 2.074543-.330363 3.385341-.330363h6.546888c2.28768 0 3.165098-.433381 2.841839-.877418-.987539-1.200678-4.369328-2.39425-10.269697-4.028308l-2.170455 1.083452-1.758388-1.083452c-1.079899.209586-2.063886 1.19002-2.831183 3.154442l2.401355.767297zm66.786779-20.7347705c-1.200677-2.8382872-1.857853-4.7991564-1.971526-6.2236284-.75664 2.4013543-.866761 3.9217384-.32326 4.4687925.660728.6607277 1.424472 1.2042295 2.294786 1.7548359zm-61.653707 7.3106319-16.589237-4.1455333c1.850748 2.5114756 3.385341 4.1455333 4.802708 4.7991564 1.523937.7566397 5.353315.4333805 11.786529-.6536231z"/></svg>

<?xml version="1.0" encoding="UTF-8" standalone="no"?>
<svg width="256px" height="256px" viewBox="0 0 256 256" version="1.1" xmlns="http://www.w3.org/2000/svg" xmlns:xlink="http://www.w3.org/1999/xlink" preserveAspectRatio="xMidYMid">
    <g>
        <path d="M245.851081,78.242944 C239.410762,62.8579358 230.242278,49.3272278 218.459301,37.5371465 C206.573308,25.7541698 193.0426,16.582133 177.764161,10.148919 C161.832098,3.38534121 145.356534,0 128,0 C110.65057,0 94.0684373,3.38534121 78.242944,10.148919 C62.9645048,16.582133 49.4302445,25.7541698 37.5371465,37.5371465 C25.7470652,49.4373491 16.5892376,62.9645048 10.1418144,78.242944 C3.38534121,94.1750062 0,110.654123 0,128 C0,145.352982 3.38534121,161.945772 10.1418144,177.771265 C16.5892376,193.046152 25.7470652,206.569756 37.5371465,218.462853 C49.3201232,230.256487 62.8579358,239.417867 78.242944,245.858186 C94.0684373,252.628868 110.65057,256.007105 128,256.007105 C145.356534,256.007105 161.832098,252.628868 177.764161,245.858186 C193.0426,239.417867 206.573308,230.256487 218.459301,218.462853 C230.242278,206.569756 239.410762,193.046152 245.851081,177.771265 C252.628868,161.945772 256,145.352982 256,128 C256,110.654123 252.628868,94.1750062 245.851081,78.242944 L245.851081,78.242944 Z M43.8673438,163.03988 L24.6636139,144.258874 L29.0293897,142.73849 C31.1003802,143.175423 33.174923,143.825493 35.3489301,144.702911 C38.6312547,145.896484 40.6986929,147.210835 41.6826798,148.415064 C43.4339633,150.482502 44.1941554,154.304776 43.8673438,159.871229 L43.6506536,162.816085 L45.9454389,160.958233 C50.7445952,156.919268 55.323509,154.521466 59.5791635,153.757722 C62.3108817,153.21422 69.6215136,152.340355 81.2979213,151.139678 L97.9901757,149.50562 L101.379069,152.120112 L43.8673438,163.03988 Z M165.430578,185.515278 C162.922654,179.405323 161.171371,173.728749 159.757556,168.496212 C158.226515,162.269031 158.013377,158.560431 159.107485,157.569339 C161.171371,155.722144 162.805428,153.647601 164.2299,151.349263 C164.329365,151.139678 164.55316,150.809314 164.776954,150.589071 C164.776954,150.482502 164.776954,150.482502 164.890628,150.482502 L181.799573,172.41795 L165.430578,185.515278 Z M156.155524,134.774235 C162.595843,129.204229 166.634807,125.712319 168.055727,124.298504 C171.330947,121.01618 176.343241,115.453279 183.103266,107.371798 C165.540699,120.689368 154.731052,128.113674 150.816418,129.42092 L146.880471,130.955513 C145.463103,131.385341 144.155857,131.712153 142.951628,131.935948 C139.900203,132.37288 135.637443,132.042517 130.184664,130.841839 C125.055144,129.634058 121.779924,127.133239 120.355452,123.314517 C120.032193,122.326978 119.598812,120.582799 119.161879,118.074876 C118.724947,115.78009 118.291566,113.92579 117.854633,112.721561 C117.414148,111.744678 116.433714,109.780257 114.803208,106.94197 C113.169151,104.000666 111.734022,101.379069 110.867261,99.1979574 C107.918852,92.5373963 106.281242,85.2267644 105.627619,77.0422668 L106.068104,77.0422668 C109.346876,77.0422668 112.174507,76.0618322 114.472844,74.3176533 C115.012794,73.8771682 115.456831,73.5468043 115.78009,73.1134238 L117.854633,66.7832265 L117.854633,66.6802098 C118.291566,63.8419227 120.255988,62.3108817 123.744345,62.3108817 C127.24336,62.3108817 129.090556,63.7246968 129.630505,66.3533983 C129.523936,66.7832265 129.523936,67.2272639 129.523936,67.7672134 C129.523936,70.278689 130.621597,72.4598007 133.019399,74.3176533 C135.30708,76.0618322 138.152471,77.0422668 141.420587,77.0422668 C144.699359,77.0422668 147.427525,76.0618322 149.821774,74.3176533 C152.006439,72.4598007 153.207116,70.278689 153.207116,67.7672134 L153.207116,67.6606444 L157.683013,67.6606444 L157.683013,64.8223573 L152.660062,64.8223573 C152.120112,63.5115588 151.132573,62.3108817 149.821774,61.2238781 C147.427525,59.4725946 144.699359,58.49216 141.420587,58.49216 C138.152471,58.49216 135.30708,59.4725946 133.019399,61.2238781 C132.259207,61.7744845 131.712153,62.4245553 131.165099,63.0817306 C130.948408,62.7549191 130.728166,62.4245553 130.511476,62.2043127 C128.873866,60.4530292 126.689202,59.5791635 123.744345,59.5791635 C120.909611,59.5791635 118.614825,60.4530292 117.090889,62.2043127 C116.760525,62.4245553 116.53673,62.7549191 116.334249,63.0817306 C115.890212,62.4245553 115.233036,61.8810535 114.472844,61.2238781 C112.614992,59.8029584 110.540449,58.9255405 108.032526,58.5987289 C112.515527,47.0324425 122.657342,34.8160853 138.475731,21.9318958 C146.223295,42.2332862 158.443205,55.3270613 175.039547,61.0000833 C175.469375,61.9876225 176.012877,63.1882996 176.780174,64.3783199 C176.780174,64.6021147 176.893847,64.7086837 176.993312,64.8223573 L164.890628,64.8223573 L164.890628,67.6606444 L178.527905,67.6606444 C178.627369,67.9910082 178.851164,68.3107152 178.964838,68.641079 C180.055394,71.3763495 179.504787,74.5272389 177.426692,77.9125801 L174.375267,82.065218 C173.401937,83.6992757 173.288264,85.1237477 173.945439,86.4309938 C174.275803,87.1876336 175.263342,88.2888463 176.893847,89.5960925 C177.874282,90.4699581 178.30411,91.7807565 178.094524,93.5178309 C181.57933,92.6439653 183.003802,90.9033386 182.122832,88.0650515 C181.685899,86.4309938 181.799573,84.8999528 182.566869,83.3724641 L183.550856,81.4080426 C183.653873,81.1842478 183.760442,81.0776788 183.760442,80.9711098 L183.760442,80.8680931 C183.88122,80.8680931 183.88122,80.8680931 183.88122,80.7544196 C185.728416,77.6923376 186.818971,75.4046568 187.366026,73.8771682 C187.469042,73.3336664 187.572059,72.889629 187.572059,72.4598007 C187.572059,71.1525546 186.932645,69.8417562 185.508173,68.747648 L189.440568,68.747648 C193.0426,72.1329892 193.802792,78.3495129 191.944939,87.2942025 C192.271751,92.5373963 191.515111,95.4822524 189.653706,96.0328588 C187.792302,96.4662393 185.938001,95.9262898 183.977132,94.3952488 L184.090806,145.569672 L210.058113,145.679794 L213.777371,150.706297 L183.977132,170.78034 L156.155524,134.774235 Z M103.776871,68.747648 C103.990009,69.4012711 104.647185,69.7316349 105.851414,69.7316349 C106.394916,69.7316349 106.94197,69.5184969 107.37535,69.1810285 C107.592041,69.0744595 107.705714,68.9678905 107.815835,68.747648 L115.126467,68.747648 C114.803208,70.17212 113.922238,71.2591236 112.515527,72.3567841 C110.760692,73.5468043 108.583132,74.2039797 106.068104,74.2039797 C103.560181,74.2039797 101.482086,73.5468043 99.6277856,72.3567841 C97.8836067,71.0459856 97.0097411,69.5184969 97.0097411,67.7672134 C97.0097411,65.9093609 97.8836067,64.3783199 99.6277856,63.1882996 C101.482086,61.8810535 103.560181,61.2238781 106.068104,61.2238781 C108.583132,61.2238781 110.760692,61.8810535 112.515527,63.1882996 C113.7091,63.9449394 114.472844,64.9289263 114.902673,66.0265867 L101.379069,66.0265867 L101.379069,68.747648 L103.776871,68.747648 Z M139.46327,68.747648 C139.676408,69.4012711 140.333583,69.7316349 141.420587,69.7316349 C142.621264,69.7316349 143.274887,69.4012711 143.601698,68.747648 L150.372381,68.747648 C150.162795,70.17212 149.285377,71.2591236 147.86801,72.3567841 C146.010157,73.5468043 143.825493,74.2039797 141.420587,74.2039797 C138.79899,74.2039797 136.735104,73.5468043 134.877251,72.3567841 C133.12952,71.0459856 132.259207,69.5184969 132.259207,67.7672134 C132.259207,67.3338329 132.259207,66.9004524 132.365776,66.5736408 C132.365776,66.4599673 132.472345,66.1331557 132.589571,65.4759804 C132.802709,64.9289263 133.566453,64.0515083 134.877251,63.1882996 C136.735104,61.8810535 138.79899,61.2238781 141.420587,61.2238781 C143.825493,61.2238781 146.010157,61.8810535 147.86801,63.1882996 C148.951461,63.9449394 149.821774,64.9289263 150.162795,66.0265867 L137.168484,66.0265867 L137.168484,68.747648 L139.46327,68.747648 Z M193.149169,99.6277856 C193.902256,100.398635 194.239725,101.2725 194.239725,102.142814 C194.239725,103.119696 193.902256,104.000666 193.149169,104.650737 C192.495546,105.410929 191.62168,105.748397 190.637693,105.748397 C189.653706,105.748397 188.889962,105.410929 188.133322,104.650737 C187.469042,104.000666 187.142231,103.119696 187.142231,102.142814 C187.142231,101.2725 187.469042,100.398635 188.133322,99.6277856 C188.889962,98.9741626 189.653706,98.5407821 190.637693,98.5407821 C191.62168,98.5407821 192.495546,98.9741626 193.149169,99.6277856 L193.149169,99.6277856 Z M217.699109,173.948991 C210.615824,179.405323 202.314101,185.07124 192.82591,190.861488 L192.719341,190.861488 L185.508173,173.181695 L219.006355,150.589071 L219.120029,150.482502 L219.120029,150.368829 C221.198124,151.569506 223.155441,153.21422 225.013293,155.285211 C226.53723,156.919268 227.631338,158.560431 228.398635,160.084367 C228.832015,160.741542 229.048705,161.391613 229.265396,162.162462 C229.592207,163.800072 225.777038,167.725363 217.699109,173.948991 L217.699109,173.948991 Z M244.874199,165.43413 C239.311298,162.922654 234.934865,161.171371 231.560181,160.5213 C230.796437,158.237171 229.265396,155.942386 227.194405,153.541032 C224.793051,150.919435 222.402353,149.072239 219.990342,147.644215 C217.59254,146.443538 215.621014,146.010157 214.107735,146.546555 L213.443455,145.679794 L223.155441,145.679794 C227.954597,145.679794 232.000666,144.258874 235.268781,141.207449 C239.311298,137.388727 241.268615,131.609136 241.169151,123.747898 C240.945356,116.003885 239.083951,106.508589 235.595593,95.3756834 C231.560181,82.6087198 226.213971,70.8292954 219.667083,60.023201 C211.699276,47.1496684 202.648017,36.997197 192.605667,29.6865651 C180.705464,21.068687 167.725363,16.6993589 153.651153,16.6993589 C137.711986,16.582133 124.948575,22.0491216 115.456831,32.9582327 C109.560014,39.6152416 105.080565,48.3432409 101.922571,59.145783 C100.39153,59.5791635 98.9741626,60.2327866 97.6598118,61.2238781 C96.3525657,62.3108817 95.3721311,63.5115588 94.8286293,64.8223573 L89.3722976,64.8223573 L89.3722976,67.6606444 L94.1750062,67.6606444 L94.1750062,67.7672134 C94.1750062,70.278689 95.3721311,72.4598007 97.6598118,74.3176533 C97.9901757,74.4277745 98.2104182,74.6444648 98.4306608,74.8576028 C96.9067244,84.8999528 96.3525657,95.8126162 96.7930508,107.492576 C97.11631,117.193906 97.7699331,123.96814 98.647351,127.776205 C100.064718,133.243194 102.032692,137.164932 104.753754,139.67996 C108.792718,143.498682 115.233036,145.459551 123.961036,145.459551 L160.73799,145.569672 L162.805428,148.297838 C161.718425,150.809314 159.860572,153.21422 157.242528,155.505453 C156.585352,156.159076 156.155524,157.025837 155.931729,158.34374 C138.79899,165.537147 129.307246,170.890462 127.566619,174.275803 L118.067771,191.291316 L108.906391,150.706297 L104.647185,151.462937 L98.75392,146.873366 L80.747315,148.741876 C69.1881331,149.931896 61.9840702,150.809314 59.1422307,151.349263 C56.2009269,151.896317 52.8120334,153.320789 49.2135542,155.505453 C48.1229984,156.265645 47.1425638,156.812699 46.3788194,157.352649 L46.2651458,154.85183 C45.828213,151.139678 44.9543474,148.518081 43.53698,146.766797 C42.2332862,145.132739 39.394999,143.498682 35.3489301,142.07421 L28.9157161,140.116893 L28.5924569,140.230566 L22.6956401,142.401021 L19.7472317,139.573391 L33.8320984,206.686981 C26.077429,197.294702 19.7472317,187.046319 14.9480754,175.796187 C8.50775678,160.5213 5.23964144,144.596342 5.23964144,128 C5.23964144,111.311298 8.50775678,95.4822524 14.9480754,80.2073655 C21.1717037,65.5825493 29.899703,52.6060001 41.245747,41.2528516 C52.6024478,29.899703 65.5825493,21.175256 80.2073655,14.9445231 C95.4787001,8.51486138 111.307746,5.24319374 128,5.24319374 C144.585685,5.24319374 160.517748,8.51486138 175.689618,14.9445231 C190.410346,21.175256 203.404657,29.899703 214.757805,41.2528516 C226.103849,52.6060001 234.835401,65.5825493 241.04482,80.2073655 C247.492243,95.4822524 250.774568,111.311298 250.774568,128 C250.774568,140.880637 248.803042,153.423806 244.874199,165.43413 L244.874199,165.43413 Z M133.353315,111.964921 C130.948408,112.721561 129.200677,113.272167 128.113674,113.378736 C126.806427,113.598979 125.165265,113.598979 123.200844,113.272167 C121.456665,113.048372 120.355452,112.721561 119.819055,112.508423 C119.161879,112.185164 118.724947,111.63811 118.508256,110.757139 C118.177892,112.284628 118.945189,113.49241 120.909611,114.366275 C122.220409,115.023451 123.854467,115.453279 125.811784,115.673521 C127.78331,115.78009 130.291233,115.13002 133.243194,113.49241 C136.18805,111.858352 137.388727,110.980934 136.735104,110.757139 C136.735104,110.757139 135.530874,111.087503 133.353315,111.964921 L133.353315,111.964921 Z M121.779924,110.330863 C122.760359,110.0005 123.854467,110.0005 125.165265,110.0005 L131.712153,110.0005 C133.999833,110.0005 134.877251,109.567119 134.553992,109.123082 C133.566453,107.922404 130.184664,106.728832 124.284295,105.094774 L122.11384,106.178226 L120.355452,105.094774 C119.275553,105.30436 118.291566,106.284794 117.524269,108.249216 L119.925624,109.016513 L121.779924,110.330863 Z M188.566703,89.5960925 C187.366026,86.7578053 186.70885,84.7969361 186.595177,83.3724641 C185.838537,85.7738184 185.728416,87.2942025 186.271917,87.8412566 C186.932645,88.5019843 187.696389,89.0454861 188.566703,89.5960925 L188.566703,89.5960925 Z M126.912996,96.9067244 L110.323759,92.7611911 C112.174507,95.2726667 113.7091,96.9067244 115.126467,97.5603475 C116.650404,98.3169872 120.479782,97.993728 126.912996,96.9067244 L126.912996,96.9067244 Z" fill="#000000"></path>
    </g>
</svg>
